logos/oist-mru.svg

<?xml version="1.0" encoding="UTF-8"?>
<!DOCTYPE svg PUBLIC "-//W3C//DTD SVG 1.1//EN" "http://www.w3.org/Graphics/SVG/1.1/DTD/svg11.dtd">
<svg xmlns="http://www.w3.org/2000/svg" version="1.1" width="251px" height="248px" style="shape-rendering:geometricPrecision; text-rendering:geometricPrecision; image-rendering:optimizeQuality; fill-rule:evenodd; clip-rule:evenodd" xmlns:xlink="http://www.w3.org/1999/xlink">
<g><path style="opacity:1" fill="#fefdfd" d="M -0.5,-0.5 C 83.1667,-0.5 166.833,-0.5 250.5,-0.5C 250.5,82.1667 250.5,164.833 250.5,247.5C 166.833,247.5 83.1667,247.5 -0.5,247.5C -0.5,164.833 -0.5,82.1667 -0.5,-0.5 Z"/></g>
<g><path style="opacity:1" fill="#ad180f" d="M 59.5,173.5 C 58.1826,179.678 58.1826,186.012 59.5,192.5C 60.1067,192.376 60.44,192.043 60.5,191.5C 75.9492,178.61 93.6159,170.277 113.5,166.5C 126.726,167.614 138.059,172.781 147.5,182C 158.276,192.117 165.776,204.284 170,218.5C 170.736,239.739 160.569,247.906 139.5,243C 126.543,239.511 113.543,236.177 100.5,233C 96.8396,232.453 93.173,231.953 89.5,231.5C 83.8514,232.46 78.1847,232.627 72.5,232C 69.3649,230.734 67.6983,228.401 67.5,225C 72.9702,210.859 82.6369,200.526 96.5,194C 108.354,189.891 119.688,190.891 130.5,197C 139.612,204.399 145.779,213.566 149,224.5C 143.431,216.54 137.264,209.04 130.5,202C 116.322,191.861 102.322,192.194 88.5,203C 82.2043,208.289 77.0376,214.456 73,221.5C 72.1923,223.579 72.359,225.579 73.5,227.5C 83.4531,228.309 93.4531,228.809 103.5,229C 115.691,232.798 128.024,236.131 140.5,239C 160.194,242.971 168.361,235.138 165,215.5C 156.03,191.025 138.863,176.025 113.5,170.5C 105.145,171.34 97.1451,173.507 89.5,177C 81.5699,181.27 73.9033,185.936 66.5,191C 63.628,193.537 61.128,196.37 59,199.5C 58.4218,208.84 57.7551,218.173 57,227.5C 56.144,233.74 52.9773,238.24 47.5,241C 42.9569,242.615 40.1235,241.115 39,236.5C 38.0918,221.303 43.0918,208.303 54,197.5C 53.8702,168.147 59.8702,140.147 72,113.5C 75.3553,108.644 79.522,104.644 84.5,101.5C 78.908,98.742 74.408,94.742 71,89.5C 66.6822,80.8644 62.3489,72.1978 58,63.5C 54.0368,62.3998 50.2035,60.8998 46.5,59C 43.0055,52.4794 45.0055,49.8127 52.5,51C 55.1396,53.6396 57.8063,56.3063 60.5,59C 73.1005,58.4372 85.4338,56.1038 97.5,52C 104.027,51.2664 110.527,51.4331 117,52.5C 126.645,45.0965 137.478,39.9298 149.5,37C 160.991,32.5083 170.824,25.675 179,16.5C 180.411,13.421 181.911,10.421 183.5,7.5C 184.356,10.1389 184.19,12.8056 183,15.5C 177.936,23.6172 171.103,29.7838 162.5,34C 151.571,39.9741 140.237,44.9741 128.5,49C 125.872,50.6255 123.539,52.6255 121.5,55C 123.667,57.1667 125.833,59.3333 128,61.5C 129.153,64.7111 129.82,68.0445 130,71.5C 136.487,64.6682 143.654,63.8348 151.5,69C 158.159,77.8277 157.992,86.6611 151,95.5C 144.985,101.287 137.818,104.787 129.5,106C 135.71,110.542 140.876,116.042 145,122.5C 153.238,136.881 158.905,152.214 162,168.5C 163.097,153.188 163.764,137.855 164,122.5C 165.114,118.701 166.447,118.701 168,122.5C 170.382,151.846 173.049,181.179 176,210.5C 177.256,198.372 179.256,186.372 182,174.5C 184.076,169.052 187.743,167.385 193,169.5C 194.686,173.929 196.519,178.262 198.5,182.5C 200.274,179.814 201.607,176.814 202.5,173.5C 205.041,170.9 207.541,170.9 210,173.5C 211.072,176.218 212.238,178.885 213.5,181.5C 214.934,179.78 215.767,177.78 216,175.5C 218.905,171.673 221.905,171.673 225,175.5C 225.273,177.101 225.773,178.601 226.5,180C 229.226,180.182 231.893,180.682 234.5,181.5C 234.023,182.478 233.357,183.311 232.5,184C 229.833,184.667 227.167,184.667 224.5,184C 222.263,175.778 219.763,175.612 217,183.5C 214.925,185.648 212.592,185.982 210,184.5C 209.044,181.623 207.711,178.956 206,176.5C 204.673,179.131 203.34,181.798 202,184.5C 199.541,187.1 197.041,187.1 194.5,184.5C 192.971,181.246 191.638,177.913 190.5,174.5C 189.5,173.167 188.5,173.167 187.5,174.5C 185.16,178.49 183.66,182.823 183,187.5C 180.885,201.539 178.551,215.539 176,229.5C 175.085,228.672 174.419,227.672 174,226.5C 170.596,202.266 168.262,177.933 167,153.5C 166.667,168.833 166.333,184.167 166,199.5C 162.335,184.842 158.669,170.175 155,155.5C 150.669,142.508 145.002,130.174 138,118.5C 133.081,112.567 126.915,108.733 119.5,107C 118.167,105.333 118.167,103.667 119.5,102C 131.107,103.15 140.941,99.65 149,91.5C 153.667,85.1667 153.667,78.8333 149,72.5C 137.288,66.8786 130.955,70.5453 130,83.5C 131.069,88.0016 133.735,91.0016 138,92.5C 143.152,90.8813 144.319,87.8813 141.5,83.5C 140.935,85.5096 139.935,87.1763 138.5,88.5C 136.054,87.573 135.221,85.9063 136,83.5C 139.434,78.2148 142.767,78.2148 146,83.5C 146.167,94.332 141.334,97.4987 131.5,93C 129.959,91.4207 128.792,89.5873 128,87.5C 127.457,82.757 127.457,78.0903 128,73.5C 119.42,76.6406 114.587,73.4739 113.5,64C 113.482,61.6212 114.149,59.4545 115.5,57.5C 114.91,56.2011 113.91,55.3678 112.5,55C 100.818,54.7504 89.4848,56.7504 78.5,61C 73.2074,61.977 67.8741,62.477 62.5,62.5C 65.8769,75.0908 72.2103,85.9241 81.5,95C 85.7402,97.7818 90.4069,99.1151 95.5,99C 96.8333,100.333 96.8333,101.667 95.5,103C 86.4608,103.441 79.6274,107.608 75,115.5C 66.2263,133.868 61.0596,153.202 59.5,173.5 Z"/></g>
<g><path style="opacity:1" fill="#fdf8f8" d="M 118.5,60.5 C 124.787,60.9545 126.787,64.1211 124.5,70C 121.482,70.5726 119.315,69.406 118,66.5C 117.322,64.4024 117.489,62.4024 118.5,60.5 Z"/></g>
<g><path style="opacity:1" fill="#efcecd" d="M 48.5,54.5 C 51.0842,54.5688 53.0842,55.7355 54.5,58C 51.399,58.6189 49.399,57.4523 48.5,54.5 Z"/></g>
<g><path style="opacity:1" fill="#dd9c9b" d="M 59.5,173.5 C 59.1771,179.69 59.5104,185.69 60.5,191.5C 60.44,192.043 60.1067,192.376 59.5,192.5C 58.1826,186.012 58.1826,179.678 59.5,173.5 Z"/></g>
<g><path style="opacity:1" fill="#fcf5f5" d="M 53.5,202.5 C 54.7251,203.152 55.3917,204.319 55.5,206C 54.8233,212.15 54.3233,218.317 54,224.5C 53.5961,230.322 50.9294,234.656 46,237.5C 44.7387,237.241 43.7387,236.574 43,235.5C 41.5499,227.336 42.8832,219.669 47,212.5C 49.4367,209.28 51.6033,205.947 53.5,202.5 Z"/></g>
</svg>

<svg xmlns="http://www.w3.org/2000/svg" width="251" height="248" style="shape-rendering:geometricPrecision;text-rendering:geometricPrecision;image-rendering:optimizeQuality;fill-rule:evenodd;clip-rule:evenodd"><path style="opacity:1" fill="#fefdfd" d="M-.5-.5h251v248H-.5V-.5z"/><path style="opacity:1" fill="#ad180f" d="M59.5 173.5c-1.317 6.178-1.317 12.512 0 19 .607-.124.94-.457 1-1 15.45-12.89 33.116-21.223 53-25 13.226 1.114 24.559 6.281 34 15.5 10.776 10.117 18.276 22.284 22.5 36.5.736 21.239-9.431 29.406-30.5 24.5a1669.903 1669.903 0 0 0-39-10 433.201 433.201 0 0 0-11-1.5 61.037 61.037 0 0 1-17 .5c-3.135-1.266-4.802-3.599-5-7 5.47-14.141 15.137-24.474 29-31 11.854-4.109 23.188-3.109 34 3 9.112 7.399 15.279 16.566 18.5 27.5a187.919 187.919 0 0 0-18.5-22.5c-14.178-10.139-28.178-9.806-42 1-6.296 5.289-11.462 11.456-15.5 18.5-.808 2.079-.641 4.079.5 6a483.704 483.704 0 0 0 30 1.5 504.379 504.379 0 0 0 37 10c19.694 3.971 27.861-3.862 24.5-23.5-8.97-24.475-26.137-39.475-51.5-45a75.555 75.555 0 0 0-24 6.5 253.992 253.992 0 0 0-23 14 45.255 45.255 0 0 0-7.5 8.5c-.578 9.34-1.245 18.673-2 28-.856 6.24-4.023 10.74-9.5 13.5-4.543 1.615-7.377.115-8.5-4.5-.908-15.197 4.092-28.197 15-39-.13-29.353 5.87-57.353 18-84a42.872 42.872 0 0 1 12.5-12c-5.592-2.758-10.092-6.758-13.5-12l-13-26A60.726 60.726 0 0 1 46.5 59c-3.495-6.52-1.495-9.187 6-8l8 8c12.6-.563 24.934-2.896 37-7a70.75 70.75 0 0 1 19.5.5c9.645-7.404 20.478-12.57 32.5-15.5 11.491-4.492 21.324-11.325 29.5-20.5a146.864 146.864 0 0 1 4.5-9c.856 2.639.69 5.306-.5 8-5.064 8.117-11.897 14.284-20.5 18.5a218.71 218.71 0 0 1-34 15 29.94 29.94 0 0 0-7 6l6.5 6.5a34.784 34.784 0 0 1 2 10c6.487-6.832 13.654-7.665 21.5-2.5 6.659 8.828 6.492 17.661-.5 26.5-6.015 5.787-13.182 9.287-21.5 10.5 6.21 4.542 11.376 10.042 15.5 16.5 8.238 14.381 13.905 29.714 17 46a819.908 819.908 0 0 0 2-46c1.114-3.799 2.447-3.799 4 0a4574.803 4574.803 0 0 0 8 88 294.354 294.354 0 0 1 6-36c2.076-5.448 5.743-7.115 11-5a191.96 191.96 0 0 0 5.5 13c1.774-2.686 3.107-5.686 4-9 2.541-2.6 5.041-2.6 7.5 0a118.063 118.063 0 0 0 3.5 8c1.434-1.72 2.267-3.72 2.5-6 2.905-3.827 5.905-3.827 9 0a15.256 15.256 0 0 0 1.5 4.5c2.726.182 5.393.682 8 1.5a7.248 7.248 0 0 1-2 2.5 16.242 16.242 0 0 1-8 0c-2.237-8.222-4.737-8.388-7.5-.5-2.075 2.148-4.408 2.482-7 1a31.041 31.041 0 0 0-4-8c-1.327 2.631-2.66 5.298-4 8-2.459 2.6-4.959 2.6-7.5 0a91.688 91.688 0 0 1-4-10c-1-1.333-2-1.333-3 0-2.34 3.99-3.84 8.323-4.5 13a1364.603 1364.603 0 0 1-7 42 7.293 7.293 0 0 1-2-3 833.731 833.731 0 0 1-7-73l-1 46-11-44a186.182 186.182 0 0 0-17-37c-4.919-5.933-11.085-9.767-18.5-11.5-1.333-1.667-1.333-3.333 0-5 11.607 1.15 21.441-2.35 29.5-10.5 4.667-6.333 4.667-12.667 0-19-11.712-5.621-18.045-1.955-19 11 1.069 4.502 3.735 7.502 8 9 5.152-1.619 6.319-4.619 3.5-9-.565 2.01-1.565 3.676-3 5-2.446-.927-3.279-2.594-2.5-5 3.434-5.285 6.767-5.285 10 0 .167 10.832-4.666 13.999-14.5 9.5a15.83 15.83 0 0 1-3.5-5.5c-.543-4.743-.543-9.41 0-14-8.58 3.14-13.413-.026-14.5-9.5-.018-2.379.649-4.545 2-6.5-.59-1.299-1.59-2.132-3-2.5-11.682-.25-23.015 1.75-34 6a90.09 90.09 0 0 1-16 1.5c3.377 12.59 9.71 23.424 19 32.5 4.24 2.782 8.907 4.115 14 4 1.333 1.333 1.333 2.667 0 4-9.04.441-15.873 4.608-20.5 12.5-8.774 18.368-13.94 37.702-15.5 58z"/><path style="opacity:1" fill="#fdf8f8" d="M118.5 60.5c6.287.455 8.287 3.621 6 9.5-3.018.573-5.185-.594-6.5-3.5-.678-2.098-.511-4.098.5-6z"/><path style="opacity:1" fill="#efcecd" d="M48.5 54.5c2.584.069 4.584 1.236 6 3.5-3.101.619-5.101-.548-6-3.5z"/><path style="opacity:1" fill="#dd9c9b" d="M59.5 173.5c-.323 6.19.01 12.19 1 18-.06.543-.393.876-1 1-1.317-6.488-1.317-12.822 0-19z"/><path style="opacity:1" fill="#fcf5f5" d="M53.5 202.5c1.225.652 1.892 1.819 2 3.5a323.622 323.622 0 0 0-1.5 18.5c-.404 5.822-3.07 10.156-8 13-1.261-.259-2.261-.926-3-2-1.45-8.164-.117-15.831 4-23a82.358 82.358 0 0 0 6.5-10z"/></svg>
